src/Components/Assets/Img/FordLogo.svg

<svg width="128" height="40" viewBox="0 0 128 40" fill="none" xmlns="http://www.w3.org/2000/svg">
<path fill-rule="evenodd" clip-rule="evenodd" d="M33.2177 17.436C33.1497 17.5174 33.1864 17.5953 33.3036 17.5873C35.0482 17.4934 36.6172 17.448 38.246 17.3164C38.5301 17.2924 38.5408 17.2207 38.5157 17.0102C38.4905 16.7971 38.4865 16.5782 38.493 16.3578C38.2363 14.9749 37.8412 13.6418 37.3144 12.3774C35.7248 13.8654 34.3212 15.4967 33.2177 17.436Z" fill="#002F6D"/>
<path fill-rule="evenodd" clip-rule="evenodd" d="M31.6382 19.8068C28.6701 24.7577 25.5003 30.0962 22.021 33.67C18.6685 37.1126 15.8238 38.2733 12.8927 38.494C14.9321 39.2293 17.1268 39.6329 19.4157 39.6329C30.1385 39.6329 38.8314 30.8417 38.8314 19.998C38.8314 19.6268 38.8192 19.2588 38.799 18.8926C38.7473 18.8937 38.6905 18.8962 38.6211 18.9002C36.8585 19.0028 34.1105 19.2719 32.2484 19.5071C31.7979 19.5639 31.7314 19.6489 31.6382 19.8068Z" fill="#002F6D"/>
<mask id="mask0" mask-type="alpha" maskUnits="userSpaceOnUse" x="0" y="0" width="37" height="34">
<path d="M0 33.2602V0.36377H36.1818V33.2602H0Z" fill="white"/>
</mask>
<g mask="url(#mask0)">
<path fill-rule="evenodd" clip-rule="evenodd" d="M5.53947 24.9889C6.77129 23.366 8.85561 22.0172 10.6199 21.6874C11.1941 21.5809 11.9657 21.6492 12.2843 22.0332C12.7848 22.622 12.6406 23.2685 12.1408 23.5267C10.795 24.2223 9.17489 25.4121 8.37381 27.0365C7.72338 28.3627 7.59215 29.9616 8.58487 31.4838C10.2471 34.0216 14.8792 34.091 19.1862 30.0441C20.2523 29.0543 21.2072 28.1027 22.1773 26.9754C24.0743 24.7816 24.7053 23.982 27.2272 20.4445C27.2574 20.4041 27.2657 20.35 27.2524 20.3238C27.2315 20.2787 27.1963 20.2663 27.1229 20.2616C25.4395 20.3081 23.9718 20.8161 22.5455 21.8943C22.1349 22.1969 21.5438 22.1543 21.2849 21.7558C20.9973 21.3052 21.2033 20.7172 21.6775 20.3863C23.9718 18.7721 26.479 18.4794 29.0386 18.0423C29.0368 18.0423 29.217 18.051 29.3633 17.8543C30.4139 16.4903 31.2078 15.2598 32.3274 13.8805C33.4561 12.4809 34.9151 11.1958 36.029 10.2307C36.0811 10.1852 36.1311 10.1434 36.1818 10.1001C35.4221 8.78777 34.5167 7.57322 33.4873 6.47795C29.7426 5.93686 25.9756 5.82341 22.3193 7.1925C18.4279 8.66159 16.7226 11.783 17.5431 13.8685C18.1259 15.3474 20.0506 15.5881 21.8516 14.6969C23.3477 13.9554 24.7312 12.7612 25.7128 11.2227C26.2625 10.3689 27.4192 10.9849 26.7947 12.4678C25.1501 16.3772 22.0083 19.478 18.1816 19.6081C14.9252 19.7154 12.8236 17.2921 12.8304 14.303C12.8427 8.40668 19.3344 4.52304 26.1547 3.94268C27.5918 3.82232 29.0145 3.79504 30.4294 3.83031C27.2995 1.64595 23.5062 0.36377 19.4156 0.36377C8.69273 0.36377 -0.00012207 9.15431 -0.00012207 19.9976C-0.00012207 24.2994 1.37156 28.275 3.69138 31.51C3.69138 31.5078 3.69066 31.5052 3.69066 31.503C3.45804 29.022 4.15161 26.8103 5.53947 24.9889Z" fill="#002F6D"/>
</g>
<path fill-rule="evenodd" clip-rule="evenodd" d="M26.1547 3.94277C19.3344 4.52313 12.8427 8.40713 12.8305 14.3031C12.8236 17.2926 14.9252 19.7155 18.1817 19.6086C22.0084 19.478 25.1505 16.3773 26.7947 12.4682C27.4192 10.9853 26.2626 10.3689 25.7128 11.2231C24.7316 12.7613 23.3477 13.9555 21.8516 14.6973C20.0506 15.5886 18.1259 15.3479 17.5431 13.8686C16.7226 11.7831 18.428 8.66168 22.3194 7.19295C25.9756 5.82349 29.7427 5.93731 33.4874 6.47804C32.5619 5.49331 31.5383 4.60495 30.4294 3.83077C29.0146 3.79549 27.5918 3.8224 26.1547 3.94277Z" fill="#FEFEFE"/>
<path fill-rule="evenodd" clip-rule="evenodd" d="M36.029 10.2303C34.9151 11.1957 33.456 12.4805 32.3278 13.8805C31.2078 15.2597 30.4139 16.4903 29.3633 17.8539C29.2169 18.051 29.0368 18.0419 29.039 18.0419C26.479 18.4794 23.9718 18.7717 21.6775 20.3859C21.2033 20.7172 20.9973 21.3048 21.2849 21.7554C21.5438 22.1543 22.1349 22.1968 22.5458 21.8943C23.9718 20.8157 25.4395 20.3081 27.1229 20.2612C27.1963 20.2659 27.2315 20.2783 27.2524 20.3237C27.2657 20.3496 27.2574 20.4037 27.2272 20.4441C24.7053 23.9819 24.0743 24.7812 22.1777 26.975C21.2072 28.1023 20.2526 29.0539 19.1862 30.0441C14.8791 34.091 10.2471 34.0212 8.58486 31.4837C7.59214 29.9612 7.72337 28.3626 8.3738 27.0361C9.17488 25.4117 10.795 24.2219 12.1412 23.5266C12.6406 23.2681 12.7851 22.6219 12.2843 22.0332C11.9657 21.6488 11.1941 21.5808 10.6199 21.6874C8.8556 22.0168 6.77128 23.3656 5.53946 24.9885C4.1516 26.8103 3.45802 29.0216 3.69065 31.503C3.69101 31.5048 3.69137 31.5074 3.69173 31.5096C5.97164 34.6888 9.16877 37.1499 12.893 38.4936C15.8237 38.2732 18.6685 37.1121 22.0213 33.6696C25.5006 30.0957 28.6701 24.7576 31.6382 19.8063C31.7313 19.6485 31.7978 19.5634 32.2483 19.5066C34.1104 19.2714 36.8588 19.0026 38.621 18.8997C38.6904 18.8961 38.7472 18.8936 38.7993 18.8921C38.7519 18.031 38.6465 17.1856 38.493 16.3576C38.4865 16.5779 38.4905 16.7968 38.5156 17.0099C38.5408 17.2205 38.53 17.2921 38.246 17.3161C36.6172 17.4477 35.0481 17.4932 33.3036 17.5866C33.1864 17.595 33.1497 17.5172 33.2177 17.4357C34.3211 15.4965 35.7248 13.8652 37.3144 12.3772C36.9861 11.5899 36.6046 10.831 36.1818 10.1001C36.1311 10.1434 36.0811 10.1848 36.029 10.2303Z" fill="#FEFEFE"/>
<path fill-rule="evenodd" clip-rule="evenodd" d="M49.1023 13.5195H58.2352V15.629H51.2776V19.2472H58.0555V21.3384H51.2776V26.9934H49.1023V13.5195Z" fill="#002F6D"/>
<path fill-rule="evenodd" clip-rule="evenodd" d="M67.186 21.9387C67.186 19.8293 66.4489 18.6111 64.2377 18.6111C62.0085 18.6111 61.2894 19.8293 61.2894 21.9387C61.2894 24.0478 62.0085 25.2842 64.2377 25.2842C66.4489 25.2842 67.186 24.0478 67.186 21.9387ZM59.1857 21.8842C59.1857 18.4293 60.6059 16.5747 64.2377 16.5747C67.8692 16.5747 69.2898 18.4293 69.2898 21.8842C69.2898 25.3391 67.8692 27.1933 64.2377 27.1933C60.6059 27.1933 59.1857 25.3391 59.1857 21.8842Z" fill="#002F6D"/>
<path fill-rule="evenodd" clip-rule="evenodd" d="M70.8406 16.938L72.4765 16.8104L72.6923 17.9744C73.1057 17.2835 74.3282 16.7377 76.0361 16.7017V18.8289C73.6271 18.8471 72.9443 19.9926 72.9443 21.7566V26.9929H70.8406V16.938Z" fill="#002F6D"/>
<path fill-rule="evenodd" clip-rule="evenodd" d="M84.5937 21.8477C84.5937 19.4655 83.8562 18.5928 81.5555 18.5928C79.3978 18.5928 78.8765 19.8655 78.8765 21.8477C78.8765 23.8658 79.3978 25.2477 81.5555 25.2477C83.7847 25.2477 84.5937 24.2658 84.5937 21.8477ZM76.7548 21.8477C76.7548 18.8291 77.7079 16.5928 81.1596 16.5928C83.1735 16.5928 84.1259 16.9924 84.5937 17.7018V12.8833H86.6971V26.9022L85.0967 27.0662L84.8633 25.9753C84.2521 26.7753 83.1735 27.1749 81.0877 27.1749C77.69 27.1749 76.7548 24.9022 76.7548 21.8477Z" fill="#002F6D"/>
<path fill-rule="evenodd" clip-rule="evenodd" d="M94.738 20.4835C96.7155 20.4835 97.8125 19.7199 97.8125 17.5926C97.8125 15.4832 96.7518 14.8468 94.6841 14.8468H90.2612V20.4835H94.738ZM88.877 13.5195H94.72C97.8125 13.5195 99.2144 14.7744 99.2144 17.5377C99.2144 20.3384 97.8305 21.8108 94.7017 21.8108H90.2612V26.993H88.877V13.5195Z" fill="#002F6D"/>
<path fill-rule="evenodd" clip-rule="evenodd" d="M107.198 22.4655V21.7383H106.677C102.362 21.7383 101.301 22.2114 101.301 24.1023C101.301 25.3023 101.841 25.9932 103.674 25.9932C106.173 25.9932 107.198 24.9023 107.198 22.4655ZM99.9886 24.1932C99.9886 21.3383 101.571 20.4837 106.605 20.4837H107.198C107.162 18.7746 106.802 18.011 104.519 18.011C103.261 18.011 102.182 18.4655 101.553 18.8834L100.834 17.8106C101.481 17.3561 102.973 16.7197 104.627 16.7197C107.971 16.7197 108.51 17.9015 108.51 20.775V24.5568C108.51 25.6295 108.583 25.775 109.535 25.775V26.975C109.446 27.0114 109.266 27.0114 108.996 27.0114C107.846 27.0114 107.54 26.6477 107.378 25.7568C106.767 26.7023 105.706 27.175 103.476 27.175C100.69 27.175 99.9886 25.8841 99.9886 24.1932Z" fill="#002F6D"/>
<path fill-rule="evenodd" clip-rule="evenodd" d="M110.696 26.0474L111.415 24.9746C112.584 25.7383 113.861 25.975 114.903 25.975C116.701 25.975 117.528 25.6295 117.528 24.211C117.528 23.0837 116.809 22.8655 114.903 22.4837C112.602 22.0292 111.164 21.6292 111.164 19.4652C111.164 17.7379 112.171 16.7197 114.903 16.7197C116.395 16.7197 117.618 17.047 118.535 17.5925L117.888 18.7201C117.133 18.3015 116.126 17.9925 114.921 17.9925C113.052 17.9925 112.512 18.5561 112.512 19.4652C112.512 20.5743 113.231 20.847 114.975 21.1925C117.385 21.6837 118.84 22.0106 118.84 24.1565C118.84 26.4477 117.582 27.175 114.831 27.175C113.519 27.175 112.045 26.9383 110.696 26.0474Z" fill="#002F6D"/>
<path fill-rule="evenodd" clip-rule="evenodd" d="M119.778 26.0474L120.497 24.9746C121.666 25.7383 122.942 25.975 123.985 25.975C125.783 25.975 126.61 25.6295 126.61 24.211C126.61 23.0837 125.891 22.8655 123.985 22.4837C121.684 22.0292 120.245 21.6292 120.245 19.4652C120.245 17.7379 121.253 16.7197 123.985 16.7197C125.477 16.7197 126.7 17.047 127.617 17.5925L126.969 18.7201C126.214 18.3015 125.208 17.9925 124.003 17.9925C122.133 17.9925 121.594 18.5561 121.594 19.4652C121.594 20.5743 122.313 20.847 124.057 21.1925C126.466 21.6837 127.922 22.0106 127.922 24.1565C127.922 26.4477 126.664 27.175 123.913 27.175C122.601 27.175 121.126 26.9383 119.778 26.0474Z" fill="#002F6D"/>
</svg>

<svg xmlns="http://www.w3.org/2000/svg" fill="none" viewBox="0 0 128 40"><path fill="#0F0F0F" fill-rule="evenodd" d="M33.218 17.436c-.068.081-.032.16.086.151 1.744-.094 3.313-.139 4.942-.27.284-.025.295-.096.27-.307a4.454 4.454 0 0 1-.023-.652 19.684 19.684 0 0 0-1.179-3.98c-1.59 1.487-2.993 3.119-4.096 5.058zm-1.58 2.371c-2.968 4.95-6.138 10.29-9.617 13.863-3.352 3.443-6.197 4.603-9.128 4.824a19.19 19.19 0 0 0 6.523 1.139c10.723 0 19.415-8.791 19.415-19.635 0-.371-.012-.74-.032-1.105a4.907 4.907 0 0 0-.178.007c-1.763.103-4.51.372-6.373.607-.45.057-.517.142-.61.3z" clip-rule="evenodd"/><mask id="a" width="37" height="34" x="0" y="0" maskUnits="userSpaceOnUse"><path fill="#fff" d="M0 33.26V.364h36.182V33.26H0z"/></mask><g mask="url(#a)"><path fill="#0F0F0F" fill-rule="evenodd" d="M5.54 24.989c1.231-1.623 3.316-2.972 5.08-3.302.574-.106 1.346-.038 1.664.346.5.589.357 1.235-.143 1.494-1.346.695-2.966 1.885-3.767 3.51-.65 1.326-.782 2.925.21 4.447 1.663 2.538 6.295 2.607 10.602-1.44 1.066-.99 2.021-1.941 2.991-3.069 1.897-2.193 2.528-2.993 5.05-6.53.03-.04.039-.095.025-.121-.02-.045-.056-.058-.13-.062-1.683.046-3.15.554-4.576 1.632-.411.303-1.002.26-1.261-.138-.288-.45-.082-1.039.392-1.37 2.295-1.614 4.802-1.907 7.362-2.344-.002 0 .178.009.324-.188 1.05-1.364 1.845-2.594 2.964-3.973 1.13-1.4 2.588-2.685 3.702-3.65.052-.046.102-.088.153-.13a19.702 19.702 0 0 0-2.695-3.623c-3.744-.541-7.511-.655-11.168.715-3.891 1.469-5.596 4.59-4.776 6.675.583 1.48 2.508 1.72 4.309.829a9.773 9.773 0 0 0 3.86-3.474c.55-.854 1.707-.238 1.083 1.245-1.645 3.91-4.787 7.01-8.613 7.14-3.257.107-5.358-2.316-5.352-5.305.013-5.896 6.504-9.78 13.325-10.36 1.437-.12 2.86-.148 4.274-.113A19.175 19.175 0 0 0 19.416.364C8.693.364 0 9.154 0 19.998A19.69 19.69 0 0 0 3.69 31.51v-.007c-.233-2.481.46-4.693 1.848-6.514z" clip-rule="evenodd"/></g><path fill="#FEFEFE" fill-rule="evenodd" d="M26.155 3.943c-6.82.58-13.312 4.464-13.325 10.36-.006 2.99 2.095 5.412 5.352 5.306 3.826-.131 6.969-3.232 8.613-7.14.624-1.484-.532-2.1-1.082-1.246a9.775 9.775 0 0 1-3.861 3.474c-1.801.892-3.726.65-4.309-.828-.82-2.086.885-5.207 4.776-6.676 3.657-1.37 7.424-1.256 11.168-.715a19.582 19.582 0 0 0-3.058-2.647 39.349 39.349 0 0 0-4.274.112z" clip-rule="evenodd"/><path fill="#FEFEFE" fill-rule="evenodd" d="M36.029 10.23c-1.114.966-2.573 2.25-3.701 3.65-1.12 1.38-1.914 2.61-2.965 3.974-.146.197-.326.188-.324.188-2.56.437-5.067.73-7.362 2.344-.474.331-.68.919-.392 1.37.259.398.85.44 1.26.138 1.427-1.078 2.894-1.586 4.578-1.633.073.005.108.017.13.063.013.026.004.08-.026.12-2.522 3.538-3.153 4.337-5.05 6.531-.97 1.127-1.924 2.079-2.99 3.07-4.308 4.046-8.94 3.976-10.602 1.439-.993-1.523-.862-3.121-.211-4.448.8-1.624 2.421-2.814 3.767-3.51.5-.258.644-.904.143-1.493-.318-.384-1.09-.452-1.664-.346-1.764.33-3.849 1.679-5.08 3.301-1.388 1.822-2.082 4.034-1.85 6.515l.002.007a19.485 19.485 0 0 0 9.201 6.984c2.93-.22 5.776-1.382 9.128-4.824 3.48-3.574 6.65-8.912 9.617-13.864.093-.158.16-.243.61-.3 1.862-.235 4.61-.503 6.373-.606l.178-.008a19.895 19.895 0 0 0-.306-2.534c-.007.22-.003.439.023.652.025.21.014.282-.27.306-1.629.132-3.198.177-4.942.27-.118.009-.154-.069-.086-.15 1.103-1.94 2.507-3.57 4.096-5.059a19.669 19.669 0 0 0-1.132-2.277l-.153.13z" clip-rule="evenodd"/><path fill="#0F0F0F" fill-rule="evenodd" d="M49.102 13.52h9.133v2.109h-6.957v3.618h6.778v2.091h-6.778v5.655h-2.176V13.52zm18.084 8.419c0-2.11-.737-3.328-2.948-3.328-2.23 0-2.949 1.218-2.949 3.328 0 2.109.72 3.345 2.949 3.345 2.21 0 2.948-1.236 2.948-3.345zm-8-.055c0-3.455 1.42-5.31 5.052-5.31 3.631 0 5.052 1.855 5.052 5.31 0 3.455-1.42 5.31-5.052 5.31-3.632 0-5.052-1.855-5.052-5.31zm11.654-4.946l1.636-.128.216 1.164c.414-.69 1.636-1.236 3.344-1.272v2.127c-2.409.018-3.092 1.164-3.092 2.928v5.236h-2.103V16.938zm13.754 4.91c0-2.383-.738-3.255-3.038-3.255-2.158 0-2.68 1.273-2.68 3.255 0 2.018.522 3.4 2.68 3.4 2.229 0 3.038-.982 3.038-3.4zm-7.84 0c0-3.019.954-5.255 4.406-5.255 2.014 0 2.966.4 3.434 1.109v-4.819h2.103v14.02l-1.6.163-.234-1.09c-.61.8-1.69 1.199-3.775 1.199-3.398 0-4.333-2.273-4.333-5.327zm17.984-1.365c1.978 0 3.075-.763 3.075-2.89 0-2.11-1.061-2.746-3.129-2.746h-4.423v5.636h4.477zm-5.861-6.963h5.843c3.093 0 4.494 1.254 4.494 4.018 0 2.8-1.383 4.273-4.512 4.273h-4.44v5.182h-1.385V13.52zm18.321 8.945v-.727h-.521c-4.315 0-5.376.473-5.376 2.364 0 1.2.54 1.891 2.373 1.891 2.499 0 3.524-1.09 3.524-3.527zm-7.21 1.728c0-2.855 1.583-3.71 6.617-3.71h.593c-.036-1.708-.396-2.472-2.679-2.472-1.258 0-2.337.454-2.966.872l-.719-1.072c.647-.455 2.139-1.091 3.793-1.091 3.344 0 3.883 1.181 3.883 4.055v3.782c0 1.073.073 1.218 1.025 1.218v1.2c-.089.036-.269.036-.539.036-1.15 0-1.456-.363-1.618-1.254-.611.945-1.672 1.418-3.902 1.418-2.786 0-3.487-1.29-3.487-2.982zm10.708 1.854l.719-1.072c1.169.763 2.446 1 3.488 1 1.798 0 2.625-.346 2.625-1.764 0-1.127-.719-1.345-2.625-1.727-2.301-.455-3.739-.855-3.739-3.019 0-1.727 1.007-2.745 3.739-2.745 1.492 0 2.715.327 3.632.873l-.647 1.127c-.755-.418-1.762-.727-2.967-.727-1.869 0-2.409.563-2.409 1.472 0 1.11.719 1.382 2.463 1.727 2.41.492 3.865.819 3.865 2.965 0 2.29-1.258 3.018-4.009 3.018-1.312 0-2.786-.237-4.135-1.128zm9.082 0l.719-1.072c1.169.763 2.445 1 3.488 1 1.798 0 2.625-.346 2.625-1.764 0-1.127-.719-1.345-2.625-1.727-2.301-.455-3.74-.855-3.74-3.019 0-1.727 1.008-2.745 3.74-2.745 1.492 0 2.715.327 3.632.873l-.648 1.127c-.755-.418-1.761-.727-2.966-.727-1.87 0-2.409.563-2.409 1.472 0 1.11.719 1.382 2.463 1.727 2.409.492 3.865.819 3.865 2.965 0 2.29-1.258 3.018-4.009 3.018-1.312 0-2.787-.237-4.135-1.128z" clip-rule="evenodd"/></svg>
